X: 119007
T: The LAD WI' THE PLAIDIE
Q: "Highland Schottische."
R: Schottische.
%R: shottish
B: James Kerr "Merry Melodies" v.1 p.19 s.0 #7
Z: 2017 John Chambers <jc:trillian.mit.edu>
M: C
L: 1/8
K: D
|:\
vf>vguf>ue d>ed>B | A>FA>d (c<e)e2 |\
f>gf>e d>ed>B | c>de>a (f<d)d2 ::\
A2 (3(FED) (F<A) A>d | B>AB>d (c<e)e2 |\
A2 (3(FED) (F<A) A>d | c>de>a (f<d)d2 :|
f2 (3agf e2 (3gfe | d2 (3fed c2 (3edc |\
B2 (3dcB A>df>a | g>fe>d (c<a)a2 |\
(3fef (3agf (3ede (3gfe | (3dcd (3fed (3cBc (3edc |\
(3BAB (3dcB A>df>a | g>fe>a (f<d)d2 |]

%%sep 1 1 500
%%sep 1 1 500

